src/components/Camino/assets/label-darkmode.svg

<svg fill="none" height="39" viewBox="0 0 39 39" width="39" xmlns="http://www.w3.org/2000/svg" xmlns:xlink="http://www.w3.org/1999/xlink"><linearGradient id="a" gradientUnits="userSpaceOnUse" x1="39.0001" x2="13.1174" y1="39" y2="-14.7245"><stop offset="0" stop-color="#3023ae"/><stop offset="1" stop-color="#c86dd7"/></linearGradient><rect fill="url(#a)" height="39" rx="4" width="39" x=".000061"/><path d="m30.9891 24.3664c-.2144-.264-.5744-.3616-.8912-.248-.888.3184-1.8512.4816-2.8656.4816-4.8528 0-8.8-3.9488-8.8-8.8 0-2.92 1.4416-5.6384 3.856-7.2736.2736-.1856.4048-.52.3312-.8416s-.3376-.5648-.6656-.6128c-.3744-.0544-.7472-.072-1.1216-.072-6.6176 0-11.99996 5.3824-11.99996 12s5.38236 12 11.99996 12c4.2 0 8.0208-2.1344 10.2176-5.7088.1776-.2896.152-.6592-.0608-.9248z" fill="#fff"/></svg>

<svg width="39" height="39" viewBox="0 0 39 39" fill="none" xmlns="http://www.w3.org/2000/svg">
<rect x="6.10352e-05" width="39" height="39" rx="4" fill="url(#paint0_linear)"/>
<path d="M30.9891 24.3664C30.7747 24.1024 30.4147 24.0048 30.0979 24.1184C29.2099 24.4368 28.2467 24.6 27.2323 24.6C22.3795 24.6 18.4323 20.6512 18.4323 15.8C18.4323 12.88 19.8739 10.1616 22.2883 8.5264C22.5619 8.3408 22.6931 8.0064 22.6195 7.6848C22.5459 7.3632 22.2819 7.12 21.9539 7.072C21.5795 7.0176 21.2067 7 20.8323 7C14.2147 7 8.83234 12.3824 8.83234 19C8.83234 25.6176 14.2147 31 20.8323 31C25.0323 31 28.8531 28.8656 31.0499 25.2912C31.2275 25.0016 31.2019 24.632 30.9891 24.3664Z" fill="white"/>
<defs>
<linearGradient id="paint0_linear" x1="39.0001" y1="39" x2="13.1174" y2="-14.7245" gradientUnits="userSpaceOnUse">
<stop stop-color="#3023AE"/>
<stop offset="1" stop-color="#C86DD7"/>
</linearGradient>
</defs>
</svg>
